.local/share/icons/Gruvbox-Plus-Dark/actions/16/draw-use-tilt.svg

<svg xmlns="http://www.w3.org/2000/svg" width="16" height="16" version="1.1">
 <defs>
  <style id="current-color-scheme" type="text/css">
   .ColorScheme-Text { color:#565656; } .ColorScheme-Highlight { color:#4285f4; }
  </style>
 </defs>
 <path style="fill:currentColor" class="ColorScheme-Text" d="M 5.9453,1 A 1,1 0 0 0 5.0508,1.6836 L 1.0508,13.684 A 1,1 0 0 0 2,15 H 14 A 1,1 0 0 0 15,14 V 12 A 1,1 0 1 0 13,12 V 13 H 9.9297 A 8,8 0 0 0 5.457,6.7949 L 6.6562,3.1953 7.7578,3.4707 A 1.0005,1.0005 0 1 0 8.2422,1.5293 L 6.2422,1.0293 A 1,1 0 0 0 5.9453,1 Z M 4.8164,8.7188 A 6,6 0 0 1 7.9141,13 H 3.3887 Z"/>
</svg>

<svg width="16" height="16" version="1.1" xmlns="http://www.w3.org/2000/svg">
  <defs>
    <style id="current-color-scheme" type="text/css">.ColorScheme-Text { color:#ebdbb2; } .ColorScheme-Highlight { color:#458588; }</style>
  </defs>
  <path class="ColorScheme-Text" d="m5.945 1a1 1 0 0 0-0.8945 0.6836l-4 12a1 1 0 0 0 0.9492 1.316h12a1 1 0 0 0 1-1v-2a1 1 0 1 0-2 0v1h-3.07a8 8 0 0 0-4.473-6.205l1.199-3.6 1.102 0.2754a1 1 0 1 0 0.4844-1.941l-2-0.5a1 1 0 0 0-0.2969-0.0293zm-1.129 7.719a6 6 0 0 1 3.098 4.281h-4.525z" fill="currentColor"/>
</svg>
